; Postprocessed by [ArcWelder](https://github.com/FormerLurker/ArcWelderLib)
; Copyright(C) 2021 - Brad Hochgesang
; Version: 1.2.0, Branch: HEAD, BuildDate: 2021-11-21T20:25:43Z
; resolution=0.05mm
; path_tolerance=5.0%
; max_radius=9999.00mm
; default_xyz_precision=3
; default_e_precision=5
; extrusion_rate_variance_percent=5.0%

;START_OF_HEADER
;HEADER_VERSION:0.1
;FLAVOR:Griffin
;GENERATOR.NAME:Cura_SteamEngine
;GENERATOR.VERSION:5.2.1
;GENERATOR.BUILD_DATE:2022-10-19
;TARGET_MACHINE.NAME:Ultimaker S5
;EXTRUDER_TRAIN.0.INITIAL_TEMPERATURE:200
;EXTRUDER_TRAIN.0.MATERIAL.VOLUME_USED:9582
;EXTRUDER_TRAIN.0.MATERIAL.GUID:506c9f0d-e3aa-4bd4-b2d2-23e2425b1aa9
;EXTRUDER_TRAIN.0.NOZZLE.DIAMETER:0.4
;EXTRUDER_TRAIN.0.NOZZLE.NAME:AA 0.4
;BUILD_PLATE.INITIAL_TEMPERATURE:60
;BUILD_VOLUME.TEMPERATURE:28
;PRINT.TIME:8157
;PRINT.GROUPS:1
;PRINT.SIZE.MIN.X:130.694
;PRINT.SIZE.MIN.Y:81.077
;PRINT.SIZE.MIN.Z:0.2
;PRINT.SIZE.MAX.X:199.299
;PRINT.SIZE.MAX.Y:158.922
;PRINT.SIZE.MAX.Z:12.2
;SLICE_UUID:c41a16e3-452a-462e-94e2-f3c7e3f4c86f
;END_OF_HEADER
;Generated with Cura_SteamEngine 5.2.1
T0
M82 ;absolute extrusion mode

G92 E0
M109 S200
G280 S1
G0 Z20.001
G1 F2700 E-6.5
;LAYER_COUNT:110
;LAYER:0
M107
M204 S1000
M205 X20 Y20
G1 F600 Z2.2
G0 F1285.7 X186.924 Y147.646 Z2.2
;TYPE:SKIRT
G1 F600 Z0.2
G1 F2700 E0
G3 X185.912 Y148.937 I-5.945 J-3.618 E0.02473 F600
G3 X133.304 Y114.298 I-23.220 J-22.004 E1.36733
G1 X132.86 Y110.453 E1.42557
G3 X143.585 Y103.823 I6.920 J-0.796 E1.66267
G1 X146.539 Y105.936 E1.71732
G1 X143.276 Y103.557 E1.77809
G3 X141.881 Y93.661 I4.100 J-5.624 E1.94577
G3 X199.244 Y114.527 I25.427 J19.380 E3.16621
G3 X194.715 Y125.626 I-19.411 J-1.447 E3.34956
G1 X194.063 Y132.513 E3.45366
G3 X185.456 Y138.610 I-6.927 J-0.655 E3.63372
G3 X187.338 Y141.200 I-7.057 J7.107 E3.68215
G3 X186.924 Y147.646 I-6.362 J2.828 E3.78318
G0 F1285.7 X186.35 Y147.651
G1 F600 X185.915 Y148.225 E3.79402
G3 X133.796 Y114.370 I-23.225 J-21.292 E5.12620
G1 X133.337 Y110.397 E5.18639
G3 X143.543 Y104.383 I6.437 J-0.743 E5.41119
G3 X148.540 Y107.985 I-191.200 J270.516 E5.50388
G3 X151.172 Y107.968 I1.408 J14.242 E5.54352
G1 X151.798 Y107.451 E5.55574
G3 X147.737 Y106.215 I-0.257 J-6.446 E5.62081
G1 X143.559 Y103.169 E5.69861
G3 X142.260 Y93.956 I3.817 J-5.236 E5.85471
G3 X198.826 Y113.133 I25.052 J19.118 E7.03623
G3 X194.251 Y125.430 I-19.032 J-0.081 E7.23777
G1 X193.585 Y132.467 E7.34413
G3 X184.535 Y137.793 I-6.451 J-0.609 E7.52827
G1 X183.652 Y137.346 E7.54316
G1 X185.763 Y139.658 E7.59027
G3 X186.350 Y147.651 I-4.782 J4.369 E7.72023
G0 F1285.7 X185.77 Y147.639
G1 F600 X185.232 Y148.26 E7.7326
G3 X134.288 Y114.443 I-22.539 J-21.328 E9.03909
G1 X133.814 Y110.342 E9.10121
G3 X143.264 Y104.773 I5.960 J-0.688 E9.30935
G3 X148.432 Y108.499 I-204.854 J289.581 E9.40523
G3 X151.331 Y108.460 I1.655 J15.291 E9.44893
G1 X153.478 Y106.685 E9.49085
G3 X148.019 Y105.827 I-1.875 J-5.867 E9.57707
G1 X143.841 Y102.781 E9.65488
G3 X142.639 Y94.250 I3.537 J-4.849 E9.79941
G3 X198.346 Y113.137 I24.673 J18.824 E10.96306
G3 X193.785 Y125.252 I-18.637 J-0.100 E11.16196
G1 X193.107 Y132.422 E11.27034
G3 X182.704 Y135.904 I-5.974 J-0.566 E11.47852
G1 X178.734 Y131.558 E11.5671
G3 X175.749 Y131.145 I1.250 J-20.029 E11.61249
G1 X172.271 Y132.81 E11.67051
G2 X174.343 Y133.389 I3.793 J-9.578 E11.70296
G2 X176.169 Y133.382 I0.887 J-6.735 E11.73051
G3 X181.142 Y135.311 I0.544 J5.972 E11.81365
G1 X185.408 Y139.982 E11.90884
G3 X185.770 Y147.639 I-4.431 J4.047 E12.03390
G0 F1285.7 X185.582 Y147.073
G1 F600 X185.111 Y147.7 E12.0457
G3 X134.778 Y114.516 I-22.411 J-20.771 E13.33881
G1 X134.29 Y110.287 E13.40287
G3 X142.985 Y105.164 I5.484 J-0.633 E13.59435
G3 X148.295 Y108.993 I-212.822 J300.735 E13.69287
G3 X151.490 Y108.951 I1.787 J14.388 E13.74104
G1 X154.965 Y106.078 E13.80889
G2 X152.392 Y106.435 I0.040 J9.739 E13.84813
G3 X148.302 Y105.439 I-0.838 J-5.453 E13.91307
G1 X144.124 Y102.393 E13.99088
G3 X143.018 Y94.545 I3.250 J-4.460 E14.12384
G3 X197.866 Y113.131 I24.294 J18.531 E15.26947
G3 X193.321 Y125.065 I-18.226 J-0.109 E15.46579
G1 X192.629 Y132.377 E15.57631
G3 X183.059 Y135.580 I-5.495 J-0.520 E15.76783
G1 X178.963 Y131.097 E15.85921
G3 X175.682 Y130.644 I0.865 J-18.371 E15.90910
G1 X170.664 Y133.048 E15.99283
G3 X173.049 Y133.584 I-0.180 J6.376 E16.02982
G2 X176.212 Y133.860 I2.181 J-6.730 E16.07799
G3 X180.581 Y135.407 I0.491 J5.556 E16.14987
G1 X185.054 Y140.305 E16.24969
G3 X185.582 Y147.073 I-4.077 J3.723 E16.35965
G0 F1285.7 X185.002 Y147.062
G1 F600 X184.551 Y147.582 E16.37001
G3 X135.270 Y114.590 I-21.858 J-20.652 E17.64036
G1 X134.767 Y110.232 E17.70637
G3 X142.706 Y105.554 I5.007 J-0.578 E17.88119
G3 X148.159 Y109.487 I-218.786 J309.088 E17.98236
G3 X151.647 Y109.443 I1.935 J15.120 E18.03496
G1 X156.147 Y105.723 E18.12282
G2 X152.912 Y105.833 I-1.377 J7.123 E18.17195
G3 X148.585 Y105.052 I-1.358 J-4.856 E18.24037
G1 X144.407 Y102.006 E18.31818
G3 X143.202 Y95.090 I2.987 J-4.083 E18.43482
G3 X197.386 Y113.124 I24.106 J17.988 E19.56720
G3 X192.862 Y124.831 I-17.459 J-0.019 E19.76034
G1 X192.152 Y132.332 E19.87372
G3 X183.413 Y135.256 I-5.018 J-0.476 E20.04857
G1 X179.192 Y130.636 E20.14274
G3 X175.651 Y130.126 I0.799 J-18.093 E20.19665
G1 X169.873 Y132.894 E20.29307
G1 X169.973 Y133.6 E20.3038
G3 X172.444 Y133.869 I0.730 J4.780 E20.34160
G2 X176.256 Y134.338 I2.777 J-6.847 E20.40005
G3 X180.434 Y135.958 I0.455 J5.023 E20.46987
G1 X184.7 Y140.629 E20.56507
G3 X185.002 Y147.062 I-3.724 J3.398 E20.67012
G0 F1285.7 X184.781 Y146.545
G1 F600 X184.211 Y147.244 E20.6837
G3 X135.762 Y114.662 I-21.517 J-20.317 E21.93599
G1 X135.244 Y110.177 E22.00394
G3 X142.426 Y105.945 I4.530 J-0.523 E22.16208
G3 X148.026 Y109.985 I-215.867 J305.123 E22.26599
G3 X151.775 Y109.961 I1.956 J12.685 E22.32259
G1 X156.575 Y105.992 E22.41631
G3 X157.397 Y105.460 I2.449 J2.882 E22.43108
G2 X155.137 Y105.118 I-3.064 J12.612 E22.46550
G2 X152.192 Y105.494 I-0.131 J10.695 E22.51036
G3 X149.140 Y104.862 I-0.631 J-4.637 E22.55813
G1 X144.69 Y101.618 E22.64101
G3 X143.776 Y95.134 I2.685 J-3.685 E22.75085
G3 X196.905 Y113.117 I23.536 J17.940 E23.86042
G3 X192.400 Y124.619 I-16.930 J0.002 E24.05064
G1 X191.674 Y132.287 E24.16655
G3 X183.767 Y134.933 I-4.540 J-0.431 E24.32473
G1 X179.39 Y130.141 E24.42239
G3 X175.608 Y129.616 I0.181 J-15.190 E24.47999
G1 X169.286 Y132.644 E24.58547
G3 X169.515 Y134.180 I-3.592 J1.321 E24.60896
G3 X172.744 Y134.495 I1.174 J4.670 E24.65877
G2 X176.299 Y134.816 I2.478 J-7.593 E24.71292
G3 X180.079 Y136.282 I0.413 J4.541 E24.77610
G1 X184.345 Y140.953 E24.8713
G3 X184.781 Y146.545 I-3.369 J3.076 E24.96214
G0 F1285.7 X184.518 Y146.057
G1 F600 X184.111 Y146.664 E24.97313
G3 X136.254 Y114.733 I-21.409 J-19.741 E26.21252
G1 X135.721 Y110.122 E26.28237
G3 X142.147 Y106.335 I4.053 J-0.468 E26.42386
G3 X147.886 Y110.477 I-219.320 J309.929 E26.53036
G3 X151.917 Y110.466 I2.054 J14.079 E26.59124
G1 X156.881 Y106.362 E26.68816
G3 X159.796 Y105.409 I2.765 J3.522 E26.73530
G3 X159.632 Y104.491 I3.123 J-1.032 E26.74936
G3 X157.020 Y104.904 I-1.895 J-3.519 E26.78990
G2 X152.653 Y104.908 I-2.176 J8.409 E26.85630
G3 X149.150 Y104.276 I-1.100 J-3.928 E26.91167
G1 X144.972 Y101.23 E26.98948
G3 X144.155 Y95.429 I2.406 J-3.297 E27.08772
G3 X196.425 Y113.123 I23.156 J17.646 E28.17946
G3 X191.937 Y124.409 I-16.451 J-0.007 E28.36661
G1 X191.196 Y132.241 E28.48499
G3 X184.122 Y134.609 I-4.062 J-0.384 E28.62651
G1 X179.602 Y129.661 E28.72736
G3 X175.563 Y129.105 I-0.042 J-14.646 E28.78890
G1 X168.669 Y132.408 E28.90393
G3 X168.959 Y134.879 I-3.475 J1.660 E28.94203
G3 X172.598 Y134.953 I1.742 J3.831 E28.99860
G2 X176.343 Y135.294 I2.619 J-8.033 E29.05565
G3 X179.562 Y136.428 I0.367 J4.094 E29.10855
G1 X183.991 Y141.277 E29.20738
G3 X184.518 Y146.057 I-3.013 J2.751 E29.28470
G0 F1285.7 X184.215 Y145.603
G1 F600 X183.945 Y146.066 E29.29277
G1 X183.53 Y146.567 E29.30256
G3 X136.746 Y114.808 I-20.837 J-19.644 E30.51872
G1 X136.198 Y110.067 E30.59054
G3 X141.868 Y106.726 I3.576 J-0.413 E30.71538
G3 X147.748 Y110.971 I-222.579 J314.502 E30.82451
G3 X151.245 Y110.854 I2.275 J15.675 E30.87726
G1 X152.06 Y110.971 E30.88965
G1 X157.187 Y106.732 E30.98976
G3 X160.562 Y106.081 I2.277 J2.731 E31.04370
G3 X160.118 Y104.144 I3.319 J-1.780 E31.07391
G1 X160.143 Y103.584 E31.08235
G3 X157.406 Y104.486 I-2.457 J-2.852 E31.12678
G2 X153.570 Y104.230 I-2.631 J10.563 E31.18495
G3 X151.998 Y104.552 I-34.460 J-164.237 E31.20911
G3 X149.433 Y103.888 I-0.442 J-3.578 E31.24990
G1 X145.255 Y100.842 E31.32771
G3 X144.362 Y95.944 I2.137 J-2.920 E31.41021
G3 X195.944 Y113.116 I22.945 J17.134 E32.48813
G3 X191.475 Y124.197 I-15.971 J0.001 E32.67237
G1 X190.718 Y132.196 E32.79328
G3 X184.476 Y134.285 I-3.584 J-0.339 E32.91814
G1 X179.814 Y129.181 E33.02216
G3 X175.518 Y128.594 I-0.203 J-14.525 E33.08765
G1 X168.658 Y131.88 E33.20212
G1 X167.978 Y132.146 E33.21311
G3 X168.505 Y134.845 I-3.104 J2.007 E33.25547
G1 X168.233 Y135.754 E33.26975
G3 X170.129 Y135.023 I3.384 J5.953 E33.30046
G3 X171.935 Y135.216 I0.535 J3.540 E33.32805
G2 X176.386 Y135.772 I3.276 J-8.132 E33.39630
G3 X179.370 Y136.929 I0.325 J3.588 E33.44616
G1 X183.636 Y141.6 E33.54135
G3 X184.215 Y145.603 I-2.657 J2.428 E33.60592
G0 F1285.7 X183.652 Y145.635
G1 F600 X183.322 Y146.095 E33.61444
G3 X137.238 Y114.887 I-20.625 J-19.174 E34.81527
G1 X136.636 Y109.676 E34.89421
G3 X137.075 Y108.088 I3.325 J0.064 E34.91922
G1 X137.706 Y107.318 E34.9342
G1 X138.546 Y106.786 E34.94916
G1 X139.512 Y106.545 E34.96415
G1 X140.011 Y106.543 E34.97165
G1 X140.979 Y106.776 E34.98664
G1 X141.589 Y107.116 E34.99715
G3 X147.658 Y111.499 I-238.824 J337.086 E35.10980
G3 X150.954 Y111.297 I2.556 J14.723 E35.15959
G1 X152.201 Y111.477 E35.17855
G1 X157.75 Y106.888 E35.2869
G1 X158.351 Y106.598 E35.29695
G1 X159.324 Y106.39 E35.31192
G1 X160.314 Y106.499 E35.32691
G3 X161.218 Y106.914 I-0.821 J2.981 E35.34193
G1 X161.946 Y107.593 E35.35691
G1 X162.423 Y108.467 E35.37189
G3 X162.598 Y109.647 I-2.942 J1.039 E35.38992
G1 X162.264 Y117.028 E35.50111
G3 X165.398 Y123.425 I-11.561 J9.630 E35.60932
G1 X166.201 Y120.726 E35.6517
G3 X164.251 Y114.483 I13.424 J-7.619 E35.75086
G1 X164.15 Y112.23 E35.7848
G2 X161.228 Y106.223 I-9.392 J0.855 E35.88752
G3 X160.597 Y104.166 I2.629 J-1.932 E35.92046
G1 X160.672 Y102.511 E35.94539
G1 X159.47 Y103.505 E35.96886
G1 X158.869 Y103.796 E35.97891
G1 X157.896 Y104.004 E35.99388
G3 X156.040 Y103.753 I0.170 J-8.242 E36.02211
G2 X151.905 Y104.079 I-1.262 J10.376 E36.08493
G1 X150.91 Y104.032 E36.09992
G3 X149.902 Y103.636 I0.738 J-3.358 E36.11627
G1 X145.265 Y100.255 E36.20263
G1 X144.838 Y99.747 E36.21262
G1 X144.395 Y98.855 E36.2276
G1 X144.257 Y97.87 E36.24257
G1 X144.435 Y96.891 E36.25755
G1 X144.707 Y96.284 E36.26756
G3 X195.465 Y113.109 I22.600 J16.798 E37.32827
G3 X191.013 Y123.985 I-15.505 J0.002 E37.50961
G1 X190.209 Y132.482 E37.63804
G3 X189.753 Y133.553 I-3.516 J-0.864 E37.65562
G1 X189.085 Y134.292 E37.67061
G1 X188.672 Y134.572 E37.67812
G1 X187.739 Y134.918 E37.69309
G1 X186.744 Y134.953 E37.70807
G1 X186.255 Y134.851 E37.71559
G1 X185.357 Y134.422 E37.73057
G1 X184.83 Y133.961 E37.7411
G1 X180.025 Y128.702 E37.8483
G3 X175.472 Y128.084 I-0.360 J-14.426 E37.91774
G1 X168.115 Y131.608 E38.04049
G1 X167.142 Y131.744 E38.05528
G1 X167.758 Y132.683 E38.07218
G3 X167.956 Y135.005 I-2.918 J1.418 E38.10798
G1 X167.464 Y136.655 E38.13389
G1 X169.617 Y135.624 E38.16982
G3 X172.296 Y135.866 I1.039 J3.442 E38.21125
G2 X176.762 Y136.220 I2.985 J-9.315 E38.27925
G3 X178.838 Y137.058 I-0.144 J3.346 E38.31354
G1 X183.508 Y142.172 E38.41776
G1 X183.827 Y142.756 E38.42778
G1 X184.083 Y143.718 E38.44276
G1 X184.022 Y144.712 E38.45774
G1 X183.652 Y145.635 E38.47271
G0 F1285.7 X183.321 Y145.244
G1 F600 X183.019 Y145.72 E38.48119
G3 X137.727 Y114.953 I-20.318 J-18.810 E39.66477
G1 X137.116 Y109.654 E39.74504
G3 X137.568 Y108.204 I2.798 J0.077 E39.76813
G1 X138.195 Y107.538 E39.7819
G1 X139.012 Y107.126 E39.79567
G1 X139.921 Y107.018 E39.80944
G3 X141.310 Y107.507 I-0.145 J2.630 E39.83187
G3 X147.541 Y112.008 I-244.560 J345.122 E39.94754
G3 X152.343 Y111.982 I2.469 J12.506 E40.02025
G1 X158.034 Y107.277 E40.13137
G3 X159.496 Y106.866 I1.457 J2.376 E40.15447
G1 X160.396 Y107.03 E40.16823
G1 X160.811 Y107.226 E40.17514
G1 X161.51 Y107.816 E40.1889
G1 X161.772 Y108.193 E40.19581
G1 X162.082 Y109.054 E40.20958
G1 X162.118 Y109.625 E40.21819
G1 X161.776 Y117.186 E40.33209
G3 X165.264 Y125.560 I-11.448 J9.682 E40.47075
G1 X166.718 Y120.673 E40.54748
G3 X164.730 Y114.441 I12.997 J-7.579 E40.64668
G1 X164.63 Y112.188 E40.68062
G2 X161.595 Y105.913 I-9.843 J0.889 E40.78778
G3 X161.067 Y104.403 I2.440 J-1.701 E40.81211
G1 X161.201 Y101.451 E40.85658
G1 X159.186 Y103.117 E40.89593
G3 X157.572 Y103.540 I-1.553 J-2.633 E40.92132
G2 X151.814 Y103.606 I-2.752 J11.150 E41.00892
G1 X150.902 Y103.537 E41.02269
G3 X149.999 Y103.112 I0.652 J-2.557 E41.03777
G1 X145.571 Y99.883 E41.12024
G1 X145.186 Y99.407 E41.12946
G1 X144.814 Y98.572 E41.14321
G1 X144.742 Y98.118 E41.15013
G1 X144.837 Y97.208 E41.1639
G3 X145.292 Y96.313 I2.516 J0.716 E41.17908
G3 X194.984 Y113.102 I22.018 J16.766 E42.21665
G3 X190.550 Y123.774 I-15.056 J0.002 E42.39510
G1 X189.733 Y132.41 E42.52563
G3 X189.288 Y133.384 I-2.947 J-0.758 E42.54181
G1 X188.637 Y134.027 E42.55558
G1 X188.238 Y134.255 E42.5625
G1 X187.354 Y134.488 E42.57625
G1 X186.443 Y134.405 E42.59002
G3 X185.185 Y133.638 I0.695 J-2.555 E42.61245
G1 X180.237 Y128.222 E42.72285
G3 X175.426 Y127.573 I-0.508 J-14.391 E42.79624
G1 X167.962 Y131.148 E42.92078
G3 X166.262 Y131.124 I-0.815 J-2.522 E42.94675
G2 X167.340 Y132.918 I10.669 J-5.190 E42.97828
G3 X167.585 Y134.570 I-2.832 J1.264 E43.00369
G1 X166.695 Y137.556 E43.05057
G1 X169.801 Y136.068 E43.1024
G3 X171.394 Y136.038 I0.850 J2.842 E43.12664
G2 X176.781 Y136.700 I3.870 J-9.239 E43.20931
G3 X178.661 Y137.577 I-0.136 J2.745 E43.24126
G1 X183.135 Y142.476 E43.3411
G3 X183.556 Y143.458 I-2.575 J1.685 E43.35724
G1 X183.596 Y144.372 E43.371
G1 X183.321 Y145.244 E43.38476
G0 F1285.7 X182.955 Y144.899
G1 F600 X182.689 Y145.371 E43.39292
G3 X137.385 Y116.963 I-19.987 J-18.454 E44.52691
G1 X138.22 Y115.023 E44.55869
G1 X137.596 Y109.624 E44.64048
G1 X137.692 Y109.078 E44.64882
G1 X138.061 Y108.338 E44.66126
G1 X138.681 Y107.791 E44.67371
G1 X139.058 Y107.616 E44.67996
G1 X139.875 Y107.496 E44.69239
G3 X140.805 Y107.736 I-0.163 J2.553 E44.70690
G3 X147.423 Y112.516 I-262.691 J370.672 E44.82976
G3 X152.485 Y112.487 I2.602 J12.446 E44.90645
G1 X158.318 Y107.665 E45.02034
G3 X159.237 Y107.360 I1.233 J2.177 E45.03498
G1 X160.061 Y107.425 E45.04741
G1 X160.8 Y107.795 E45.05985
G1 X161.103 Y108.079 E45.0661
G1 X161.52 Y108.793 E45.07854
G1 X161.651 Y109.328 E45.08683
G1 X161.289 Y117.344 E45.20758
G3 X164.791 Y125.609 I-11.083 J9.571 E45.34483
G1 X164.892 Y127.851 E45.37861
G1 X164.951 Y128.293 E45.38532
G1 X167.236 Y120.613 E45.5059
G3 X165.208 Y114.388 I12.528 J-7.524 E45.60523
G1 X165.107 Y112.134 E45.63919
G2 X161.961 Y105.601 I-10.308 J0.940 E45.75063
G3 X161.556 Y104.210 I1.878 J-1.301 E45.77276
G1 X161.73 Y100.391 E45.83029
G1 X158.902 Y102.729 E45.8855
G3 X157.515 Y103.042 I-1.193 J-2.059 E45.90719
G2 X151.727 Y103.132 I-2.724 J10.951 E45.99522
G1 X150.906 Y103.039 E46.00766
G1 X150.449 Y102.846 E46.01512
G1 X145.876 Y99.512 E46.10029
G1 X145.541 Y99.073 E46.1086
G1 X145.247 Y98.3 E46.12104
G1 X145.265 Y97.474 E46.13348
G3 X145.671 Y96.607 I2.102 J0.456 E46.14797
G3 X194.504 Y113.108 I21.639 J16.471 E47.16771
G3 X190.088 Y123.562 I-14.611 J-0.012 E47.34304
G1 X189.258 Y132.34 E47.47573
G3 X188.824 Y133.202 I-2.421 J-0.678 E47.49032
G1 X188.196 Y133.738 E47.50274
G1 X187.411 Y133.999 E47.51519
G1 X186.996 Y134.013 E47.52144
G1 X186.197 Y133.803 E47.53387
G1 X185.724 Y133.517 E47.54219
G1 X180.446 Y127.739 E47.65996
G3 X175.382 Y127.062 I-0.659 J-14.349 E47.73723
G1 X167.783 Y130.702 E47.86402
G3 X166.821 Y130.775 I-0.669 J-2.445 E47.87861
G1 X166.037 Y130.512 E47.89105
G1 X165.698 Y130.273 E47.89729
G1 X165.227 Y129.692 E47.90855
G2 X166.923 Y133.159 I10.264 J-2.873 E47.96693
