;START_OF_HEADER
;HEADER_VERSION:0.1
;FLAVOR:Griffin
;GENERATOR.NAME:Cura_SteamEngine
;GENERATOR.VERSION:5.2.1
;GENERATOR.BUILD_DATE:2022-10-19
;TARGET_MACHINE.NAME:Ultimaker S5
;EXTRUDER_TRAIN.0.INITIAL_TEMPERATURE:200
;EXTRUDER_TRAIN.0.MATERIAL.VOLUME_USED:9582
;EXTRUDER_TRAIN.0.MATERIAL.GUID:506c9f0d-e3aa-4bd4-b2d2-23e2425b1aa9
;EXTRUDER_TRAIN.0.NOZZLE.DIAMETER:0.4
;EXTRUDER_TRAIN.0.NOZZLE.NAME:AA 0.4
;BUILD_PLATE.INITIAL_TEMPERATURE:60
;BUILD_VOLUME.TEMPERATURE:28
;PRINT.TIME:8157
;PRINT.GROUPS:1
;PRINT.SIZE.MIN.X:130.694
;PRINT.SIZE.MIN.Y:81.077
;PRINT.SIZE.MIN.Z:0.2
;PRINT.SIZE.MAX.X:199.299
;PRINT.SIZE.MAX.Y:158.922
;PRINT.SIZE.MAX.Z:12.2
;SLICE_UUID:c41a16e3-452a-462e-94e2-f3c7e3f4c86f
;END_OF_HEADER
;Generated with Cura_SteamEngine 5.2.1
T0
M82 ;absolute extrusion mode

G92 E0
M109 S200
G280 S1
G0 Z20.001
G1 F2700 E-6.5
;LAYER_COUNT:110
;LAYER:0
M107
M204 S1000
M205 X20 Y20
G1 F600 Z2.2
G0 F1285.7 X186.924 Y147.646 Z2.2
;TYPE:SKIRT
G1 F600 Z0.2
G1 F2700 E0
G1 F600 X186.503 Y148.261 E0.01122
G1 X185.912 Y148.937 E0.02473
G1 X184.603 Y150.253 E0.05266
G1 X183.086 Y151.587 E0.08306
G1 X181.5 Y152.816 E0.11325
G1 X179.847 Y153.94 E0.14333
G1 X178.099 Y154.973 E0.17389
G1 X176.313 Y155.882 E0.20405
G1 X174.468 Y156.679 E0.23429
G1 X172.575 Y157.358 E0.26455
G1 X170.635 Y157.922 E0.29496
G1 X168.687 Y158.356 E0.32499
G1 X166.693 Y158.673 E0.35537
G1 X164.692 Y158.86 E0.38562
G1 X162.7 Y158.922 E0.41561
G1 X160.673 Y158.858 E0.44613
G1 X158.672 Y158.669 E0.47637
G1 X156.688 Y158.352 E0.50661
G1 X154.731 Y157.915 E0.53678
G1 X152.793 Y157.351 E0.56716
G1 X150.906 Y156.673 E0.59733
G1 X149.065 Y155.874 E0.62753
G1 X147.269 Y154.959 E0.65786
G1 X145.528 Y153.927 E0.68832
G1 X143.882 Y152.808 E0.71827
G1 X142.301 Y151.582 E0.74838
G1 X140.775 Y150.237 E0.77899
G1 X139.357 Y148.817 E0.80919
G1 X138.032 Y147.31 E0.83938
G1 X136.795 Y145.716 E0.86975
G1 X135.674 Y144.064 E0.89979
G1 X134.64 Y142.319 E0.93031
G1 X133.737 Y140.54 E0.96034
G1 X132.94 Y138.7 E0.99051
G1 X132.256 Y136.796 E1.02096
G1 X131.695 Y134.868 E1.05117
G1 X131.26 Y132.91 E1.08136
G1 X130.943 Y130.91 E1.11183
G1 X130.756 Y128.915 E1.14198
G1 X130.694 Y126.923 E1.17197
G1 X130.758 Y124.894 E1.20252
G1 X130.947 Y122.897 E1.23271
G1 X131.263 Y120.914 E1.26293
G1 X131.704 Y118.944 E1.2933
G1 X132.263 Y117.024 E1.3234
G1 X132.938 Y115.142 E1.35348
G1 X133.304 Y114.298 E1.36733
G1 X132.86 Y110.453 E1.42557
G1 X132.814 Y109.708 E1.43681
G1 X132.848 Y108.963 E1.44803
G1 X132.962 Y108.226 E1.45925
G1 X133.154 Y107.505 E1.47048
G1 X133.422 Y106.809 E1.4817
G1 X133.763 Y106.145 E1.49294
G1 X134.173 Y105.522 E1.50416
G1 X134.647 Y104.947 E1.51537
G1 X135.181 Y104.425 E1.52661
G1 X135.767 Y103.963 E1.53784
G1 X136.399 Y103.567 E1.54906
G1 X137.069 Y103.241 E1.56028
G1 X137.771 Y102.988 E1.57151
G1 X138.496 Y102.812 E1.58273
G1 X139.236 Y102.715 E1.59396
G1 X139.981 Y102.697 E1.60518
G1 X140.725 Y102.759 E1.61641
G1 X141.457 Y102.901 E1.62763
G1 X142.17 Y103.12 E1.63886
G1 X142.856 Y103.413 E1.65008
G1 X143.585 Y103.823 E1.66267
G1 X146.539 Y105.936 E1.71732
G1 X143.276 Y103.557 E1.77809
G1 X142.697 Y103.086 E1.78932
G1 X142.173 Y102.556 E1.80054
G1 X141.708 Y101.972 E1.81177
G1 X141.308 Y101.342 E1.823
G1 X140.978 Y100.674 E1.83422
G1 X140.722 Y99.973 E1.84545
G1 X140.542 Y99.249 E1.85667
G1 X140.44 Y98.51 E1.8679
G1 X140.418 Y97.765 E1.87912
G1 X140.476 Y97.021 E1.89035
G1 X140.613 Y96.288 E1.90157
G1 X140.828 Y95.574 E1.91279
G1 X141.118 Y94.886 E1.92402
G1 X141.48 Y94.234 E1.93525
G1 X141.881 Y93.661 E1.94577
G1 X142.651 Y92.671 E1.96464
G1 X143.966 Y91.178 E1.99458
G1 X145.406 Y89.738 E2.02523
G1 X146.899 Y88.423 E2.05517
G1 X148.511 Y87.175 E2.08585
G1 X150.164 Y86.052 E2.11592
G1 X151.876 Y85.039 E2.14585
G1 X153.682 Y84.118 E2.17636
G1 X155.526 Y83.322 E2.20659
G1 X157.408 Y82.645 E2.23668
G1 X159.353 Y82.08 E2.26716
G1 X161.305 Y81.644 E2.29726
G1 X163.281 Y81.33 E2.32737
G1 X165.306 Y81.138 E2.35798
G1 X167.307 Y81.077 E2.38811
G1 X169.343 Y81.141 E2.41876
G1 X171.325 Y81.33 E2.44872
G1 X173.325 Y81.649 E2.4792
G1 X175.281 Y82.087 E2.50936
G1 X177.21 Y82.65 E2.5396
G1 X179.098 Y83.329 E2.56979
G1 X180.945 Y84.129 E2.60008
G1 X182.718 Y85.033 E2.63003
G1 X184.457 Y86.062 E2.66044
G1 X186.122 Y87.195 E2.69075
G1 X187.721 Y88.436 E2.72121
G1 X189.221 Y89.76 E2.75131
G1 X190.632 Y91.169 E2.78132
G1 X191.96 Y92.678 E2.81157
G1 X193.209 Y94.29 E2.84226
G1 X194.331 Y95.945 E2.87235
G1 X195.348 Y97.662 E2.90238
G1 X196.257 Y99.448 E2.93254
G1 X197.061 Y101.304 E2.96297
G1 X197.737 Y103.185 E2.99305
G1 X198.3 Y105.121 E3.02339
G1 X198.739 Y107.086 E3.05369
G1 X199.053 Y109.063 E3.08382
G1 X199.243 Y111.078 E3.11427
G1 X199.299 Y112.875 E3.14133
G1 X199.295 Y113.406 E3.14932
G1 X199.244 Y114.527 E3.16621
G1 X199.188 Y115.144 E3.17553
G1 X199.037 Y116.26 E3.19248
G1 X198.921 Y116.895 E3.20219
G1 X198.669 Y117.985 E3.21903
G1 X198.508 Y118.566 E3.2281
G1 X198.161 Y119.635 E3.24501
G1 X197.939 Y120.225 E3.2545
G1 X197.498 Y121.255 E3.27136
G1 X197.227 Y121.817 E3.28075
G1 X196.698 Y122.799 E3.29753
G1 X196.375 Y123.339 E3.307
G1 X195.749 Y124.285 E3.32407
G1 X195.387 Y124.783 E3.33334
G1 X194.715 Y125.626 E3.34956
G1 X194.063 Y132.513 E3.45366
G1 X193.953 Y133.25 E3.46488
G1 X193.765 Y133.972 E3.4761
G1 X193.5 Y134.67 E3.48734
G1 X193.163 Y135.335 E3.49856
G1 X192.756 Y135.96 E3.50978
G1 X192.285 Y136.538 E3.521
G1 X191.754 Y137.063 E3.53224
G1 X191.17 Y137.527 E3.54346
G1 X190.54 Y137.926 E3.55468
G1 X189.871 Y138.256 E3.56591
G1 X189.171 Y138.512 E3.57713
G1 X188.447 Y138.692 E3.58835
G1 X187.708 Y138.793 E3.59958
G1 X186.962 Y138.815 E3.61081
G1 X186.219 Y138.757 E3.62202
G1 X185.456 Y138.61 E3.63372
G1 X186.117 Y139.334 E3.64847
G1 X186.59 Y139.911 E3.6597
G1 X186.998 Y140.536 E3.67093
G1 X187.338 Y141.2 E3.68215
G1 X187.604 Y141.897 E3.69338
G1 X187.794 Y142.618 E3.7046
G1 X187.905 Y143.356 E3.71583
G1 X187.938 Y144.101 E3.72705
G1 X187.89 Y144.845 E3.73827
G1 X187.763 Y145.58 E3.7495
G1 X187.558 Y146.297 E3.76072
G1 X187.277 Y146.988 E3.77195
G1 X186.924 Y147.646 E3.78318
G0 F1285.7 X186.35 Y147.651
G1 F600 X185.915 Y148.225 E3.79402
G1 X185.572 Y148.598 E3.80165
G1 X184.278 Y149.899 E3.82926
G1 X182.78 Y151.217 E3.85928
G1 X181.212 Y152.431 E3.88913
G1 X179.585 Y153.537 E3.91873
G1 X177.878 Y154.546 E3.94857
G1 X176.113 Y155.445 E3.97838
G1 X174.286 Y156.234 E4.00833
G1 X172.426 Y156.902 E4.03807
G1 X170.523 Y157.455 E4.06789
G1 X168.586 Y157.886 E4.09775
G1 X166.637 Y158.195 E4.12745
G1 X164.665 Y158.381 E4.15725
G1 X162.684 Y158.442 E4.18708
G1 X160.717 Y158.38 E4.21669
G1 X158.732 Y158.192 E4.2467
G1 X156.787 Y157.882 E4.27634
G1 X154.841 Y157.448 E4.30634
G1 X152.943 Y156.894 E4.33609
G1 X151.078 Y156.224 E4.36592
G1 X149.266 Y155.439 E4.39563
G1 X147.512 Y154.544 E4.42527
G1 X145.784 Y153.521 E4.45548
G1 X144.169 Y152.422 E4.48488
G1 X142.598 Y151.205 E4.51479
G1 X141.11 Y149.892 E4.54465
G1 X139.711 Y148.492 E4.57443
G1 X138.395 Y146.996 E4.60442
G1 X137.187 Y145.439 E4.63407
G1 X136.076 Y143.801 E4.66386
G1 X135.066 Y142.096 E4.69368
G1 X134.174 Y140.339 E4.72333
G1 X133.381 Y138.509 E4.75334
G1 X132.715 Y136.656 E4.78297
G1 X132.162 Y134.753 E4.8128
G1 X131.73 Y132.812 E4.84272
G1 X131.42 Y130.854 E4.87255
G1 X131.235 Y128.888 E4.90227
G1 X131.174 Y126.907 E4.93209
G1 X131.236 Y124.938 E4.96174
G1 X131.424 Y122.955 E4.99171
G1 X131.735 Y121 E5.0215
G1 X132.166 Y119.074 E5.0512
G1 X132.721 Y117.169 E5.08106
G1 X133.388 Y115.31 E5.11078
G1 X133.796 Y114.37 E5.1262
G1 X133.337 Y110.397 E5.18639
G1 X133.294 Y109.679 E5.19721
G1 X133.331 Y108.96 E5.20805
G1 X133.448 Y108.25 E5.21887
G1 X133.643 Y107.557 E5.22971
G1 X133.913 Y106.89 E5.24054
G1 X134.256 Y106.257 E5.25137
G1 X134.666 Y105.666 E5.2622
G1 X135.14 Y105.124 E5.27303
G1 X135.671 Y104.638 E5.28386
G1 X136.253 Y104.214 E5.2947
G1 X136.878 Y103.857 E5.30553
G1 X137.538 Y103.572 E5.31635
G1 X138.226 Y103.362 E5.32717
G1 X138.934 Y103.229 E5.33801
G1 X139.652 Y103.175 E5.34885
G1 X140.371 Y103.202 E5.35968
G1 X141.083 Y103.308 E5.37051
G1 X141.778 Y103.492 E5.38133
G1 X142.449 Y103.752 E5.39216
G1 X143.087 Y104.085 E5.40299
G1 X143.543 Y104.383 E5.41119
G1 X146.592 Y106.564 E5.4676
G1 X148.54 Y107.985 E5.50388
G1 X149.612 Y107.937 E5.52003
G1 X150.731 Y107.937 E5.53687
G1 X151.172 Y107.968 E5.54352
G1 X151.798 Y107.451 E5.55574
G1 X151.161 Y107.447 E5.56533
G1 X150.447 Y107.364 E5.57614
G1 X149.745 Y107.201 E5.58699
G1 X149.066 Y106.963 E5.59782
G1 X148.418 Y106.65 E5.60865
G1 X147.737 Y106.215 E5.62081
G1 X143.559 Y103.169 E5.69861
G1 X143.001 Y102.714 E5.70945
G1 X142.498 Y102.199 E5.72028
G1 X142.055 Y101.632 E5.73111
G1 X141.678 Y101.019 E5.74194
G1 X141.371 Y100.368 E5.75277
G1 X141.138 Y99.687 E5.7636
G1 X140.982 Y98.984 E5.77444
G1 X140.905 Y98.269 E5.78526
G1 X140.907 Y97.549 E5.79609
G1 X140.99 Y96.834 E5.80693
G1 X141.151 Y96.133 E5.81775
G1 X141.389 Y95.453 E5.82859
G1 X141.701 Y94.805 E5.83941
G1 X142.26 Y93.956 E5.85471
G1 X143.027 Y92.97 E5.87351
G1 X144.319 Y91.503 E5.90293
G1 X145.725 Y90.097 E5.93285
G1 X147.203 Y88.795 E5.96249
G1 X148.798 Y87.56 E5.99285
G1 X150.421 Y86.457 E6.02238
G1 X152.106 Y85.461 E6.05183
G1 X153.883 Y84.555 E6.08185
G1 X155.71 Y83.766 E6.1118
G1 X157.557 Y83.102 E6.14133
G1 X159.463 Y82.548 E6.1712
G1 X161.404 Y82.114 E6.20113
G1 X163.342 Y81.806 E6.23066
G1 X165.334 Y81.618 E6.26077
G1 X167.323 Y81.557 E6.29072
G1 X169.297 Y81.619 E6.32044
G1 X171.27 Y81.807 E6.35026
G1 X173.223 Y82.119 E6.38002
G1 X175.167 Y82.554 E6.41
G1 X177.055 Y83.104 E6.43959
G1 X178.921 Y83.776 E6.46944
G1 X180.738 Y84.563 E6.49924
G1 X182.494 Y85.459 E6.5289
G1 X184.201 Y86.469 E6.55875
G1 X185.845 Y87.588 E6.58868
G1 X187.414 Y88.805 E6.61856
G1 X188.887 Y90.105 E6.64812
G1 X190.278 Y91.495 E6.67772
G1 X191.597 Y92.993 E6.70775
G1 X192.815 Y94.565 E6.73768
G1 X193.925 Y96.201 E6.76743
G1 X194.926 Y97.893 E6.79701
G1 X195.827 Y99.662 E6.82689
G1 X196.612 Y101.474 E6.8566
G1 X197.28 Y103.334 E6.88634
G1 X197.836 Y105.246 E6.91631
G1 X198.267 Y107.172 E6.94601
G1 X198.576 Y109.119 E6.97567
G1 X198.764 Y111.106 E7.00571
G1 X198.826 Y113.133 E7.03623
G1 X198.764 Y114.506 E7.05691
G1 X198.712 Y115.08 E7.06558
G1 X198.561 Y116.196 E7.08253
G1 X198.453 Y116.787 E7.09157
G1 X198.201 Y117.877 E7.10841
G1 X198.051 Y118.418 E7.11685
G1 X197.704 Y119.487 E7.13377
G1 X197.498 Y120.037 E7.14261
G1 X197.057 Y121.067 E7.15947
G1 X196.805 Y121.589 E7.16819
G1 X196.276 Y122.571 E7.18497
G1 X195.975 Y123.074 E7.1938
G1 X195.349 Y124.02 E7.21087
G1 X195.011 Y124.484 E7.2195
G1 X194.251 Y125.43 E7.23777
G1 X193.585 Y132.467 E7.34413
G1 X193.478 Y133.179 E7.35497
G1 X193.292 Y133.874 E7.3658
G1 X193.03 Y134.545 E7.37664
G1 X192.696 Y135.182 E7.38746
G1 X192.293 Y135.778 E7.39829
G1 X191.826 Y136.326 E7.40912
G1 X191.301 Y136.819 E7.41996
G1 X190.725 Y137.251 E7.43079
G1 X190.105 Y137.616 E7.44162
G1 X189.448 Y137.91 E7.45245
G1 X188.763 Y138.129 E7.46327
G1 X188.057 Y138.271 E7.47411
G1 X187.34 Y138.334 E7.48494
G1 X186.621 Y138.317 E7.49577
G1 X185.907 Y138.22 E7.50661
G1 X185.209 Y138.045 E7.51744
G1 X184.535 Y137.793 E7.52827
G1 X183.652 Y137.346 E7.54316
G1 X185.763 Y139.658 E7.59027
G1 X186.218 Y140.216 E7.60111
G1 X186.608 Y140.82 E7.61193
G1 X186.929 Y141.464 E7.62276
G1 X187.177 Y142.14 E7.63359
G1 X187.348 Y142.839 E7.64442
G1 X187.441 Y143.553 E7.65526
G1 X187.453 Y144.273 E7.66609
G1 X187.386 Y144.989 E7.67691
G1 X187.24 Y145.694 E7.68775
G1 X187.017 Y146.378 E7.69857
G1 X186.719 Y147.033 E7.7094
G1 X186.35 Y147.651 E7.72023
G0 F1285.7 X185.77 Y147.639
G1 F600 X185.232 Y148.26 E7.7326
G1 X183.951 Y149.548 E7.75994
G1 X182.474 Y150.846 E7.78953
G1 X180.937 Y152.038 E7.8188
G1 X179.328 Y153.131 E7.84807
G1 X177.647 Y154.125 E7.87745
G1 X175.893 Y155.017 E7.90707
G1 X174.11 Y155.788 E7.9363
G1 X172.291 Y156.441 E7.96538
G1 X170.394 Y156.992 E7.99511
G1 X168.506 Y157.413 E8.02422
G1 X166.577 Y157.719 E8.05361
G1 X164.637 Y157.901 E8.08293
G1 X162.684 Y157.962 E8.11234
G1 X160.745 Y157.9 E8.14153
G1 X158.79 Y157.715 E8.17108
G1 X156.869 Y157.409 E8.20035
G1 X154.971 Y156.985 E8.22962
G1 X153.092 Y156.438 E8.25907
G1 X151.26 Y155.779 E8.28837
G1 X149.467 Y155.002 E8.31777
G1 X147.734 Y154.118 E8.34705
G1 X146.048 Y153.119 E8.37654
G1 X144.446 Y152.03 E8.40569
G1 X142.913 Y150.841 E8.43489
G1 X141.428 Y149.532 E8.46468
G1 X140.064 Y148.167 E8.49371
G1 X138.773 Y146.7 E8.52312
G1 X137.573 Y145.152 E8.5526
G1 X136.482 Y143.545 E8.58183
G1 X135.484 Y141.86 E8.6113
G1 X134.607 Y140.132 E8.64046
G1 X133.83 Y138.338 E8.66988
G1 X133.172 Y136.506 E8.69917
G1 X132.624 Y134.624 E8.72867
G1 X132.204 Y132.732 E8.75783
G1 X131.897 Y130.795 E8.78735
G1 X131.715 Y128.86 E8.81659
G1 X131.654 Y126.907 E8.846
G1 X131.716 Y124.966 E8.87522
G1 X131.9 Y123.014 E8.90473
G1 X132.208 Y121.084 E8.93414
G1 X132.632 Y119.187 E8.96339
G1 X133.172 Y117.333 E8.99245
G1 X133.835 Y115.486 E9.02198
G1 X134.288 Y114.443 E9.03909
G1 X133.814 Y110.342 E9.10121
G1 X133.774 Y109.651 E9.11163
G1 X133.814 Y108.96 E9.12205
G1 X133.934 Y108.278 E9.13247
G1 X134.132 Y107.614 E9.14289
G1 X134.404 Y106.977 E9.15332
G1 X134.748 Y106.376 E9.16374
G1 X135.16 Y105.819 E9.17416
G1 X135.632 Y105.313 E9.18458
G1 X136.16 Y104.864 E9.19501
G1 X136.736 Y104.48 E9.20542
G1 X137.352 Y104.164 E9.21584
G1 X138.001 Y103.922 E9.22627
G1 X138.674 Y103.756 E9.2367
G1 X139.36 Y103.668 E9.2471
G1 X140.053 Y103.66 E9.25753
G1 X140.742 Y103.733 E9.26796
G1 X141.418 Y103.884 E9.27838
G1 X142.072 Y104.111 E9.2888
G1 X142.695 Y104.413 E9.29922
G1 X143.264 Y104.773 E9.30935
G1 X146.31 Y106.952 E9.36571
G1 X148.432 Y108.499 E9.40523
G1 X149.072 Y108.441 E9.4149
G1 X149.612 Y108.417 E9.42303
G1 X150.731 Y108.417 E9.43987
G1 X151.331 Y108.46 E9.44893
G1 X153.478 Y106.685 E9.49085
G1 X152.494 Y106.905 E9.50602
G1 X151.805 Y106.974 E9.51644
G1 X151.112 Y106.963 E9.52687
G1 X150.426 Y106.872 E9.53728
G1 X149.754 Y106.703 E9.54771
G1 X149.107 Y106.457 E9.55813
G1 X148.492 Y106.139 E9.56855
G1 X148.019 Y105.827 E9.57707
G1 X143.841 Y102.781 E9.65488
G1 X143.306 Y102.342 E9.66529
G1 X142.825 Y101.843 E9.67572
G1 X142.405 Y101.293 E9.68614
G1 X142.051 Y100.698 E9.69656
G1 X141.768 Y100.066 E9.70698
G1 X141.559 Y99.405 E9.71741
G1 X141.429 Y98.725 E9.72783
G1 X141.377 Y98.035 E9.73824
G1 X141.405 Y97.343 E9.74866
G1 X141.513 Y96.659 E9.75908
G1 X141.699 Y95.992 E9.7695
G1 X141.96 Y95.35 E9.77993
G1 X142.294 Y94.743 E9.79036
G1 X142.639 Y94.25 E9.79941
G1 X143.39 Y93.285 E9.81782
G1 X144.679 Y91.821 E9.84717
G1 X146.041 Y90.459 E9.87615
G1 X147.525 Y89.151 E9.90592
G1 X149.065 Y87.959 E9.93523
G1 X150.683 Y86.86 E9.96466
G1 X152.341 Y85.879 E9.99365
G1 X154.09 Y84.988 E10.02319
G1 X155.873 Y84.218 E10.05242
G1 X157.706 Y83.558 E10.08173
G1 X159.594 Y83.01 E10.11132
G1 X161.486 Y82.587 E10.14049
G1 X163.398 Y82.283 E10.16963
G1 X165.361 Y82.098 E10.1993
G1 X167.323 Y82.037 E10.22884
G1 X169.269 Y82.099 E10.25814
G1 X171.21 Y82.284 E10.28748
G1 X173.14 Y82.592 E10.31689
G1 X175.041 Y83.017 E10.3462
G1 X176.92 Y83.565 E10.37566
G1 X178.744 Y84.222 E10.40483
G1 X180.531 Y84.996 E10.43414
G1 X182.259 Y85.877 E10.46333
G1 X183.937 Y86.87 E10.49267
G1 X185.569 Y87.98 E10.52237
G1 X187.101 Y89.169 E10.55155
G1 X188.569 Y90.465 E10.58102
G1 X189.926 Y91.82 E10.60988
G1 X191.22 Y93.29 E10.63935
G1 X192.435 Y94.859 E10.66921
G1 X193.518 Y96.456 E10.69825
G1 X194.507 Y98.127 E10.72747
G1 X195.385 Y99.85 E10.75657
G1 X196.167 Y101.658 E10.78621
G1 X196.824 Y103.484 E10.81542
G1 X197.369 Y105.359 E10.8448
G1 X197.796 Y107.271 E10.87428
